icons/midnadark/actions/24/final_activity.svg

<?xml version="1.0" encoding="UTF-8" standalone="no"?>
<!-- Created with Inkscape (http://www.inkscape.org/) -->

<svg
   xmlns:dc="http://purl.org/dc/elements/1.1/"
   xmlns:cc="http://creativecommons.org/ns#"
   xmlns:rdf="http://www.w3.org/1999/02/22-rdf-syntax-ns#"
   xmlns:svg="http://www.w3.org/2000/svg"
   xmlns="http://www.w3.org/2000/svg"
   xmlns:sodipodi="http://sodipodi.sourceforge.net/DTD/sodipodi-0.dtd"
   xmlns:inkscape="http://www.inkscape.org/namespaces/inkscape"
   width="22"
   height="22"
   id="svg3869"
   version="1.1"
   inkscape:version="0.91 r13725"
   sodipodi:docname="final_activity.svg">
  <defs
     id="defs3871">
    <style
       type="text/css"
       id="current-color-scheme">
      .ColorScheme-Text {
        color:#f2f2f2;
      }
      .ColorScheme-Background {
        color:#eff0f1;
      }
      .ColorScheme-Highlight {
        color:#3daee9;
      }
      .ColorScheme-ViewText {
        color:#31363b;
      }
      .ColorScheme-ViewBackground {
        color:#fcfcfc;
      }
      .ColorScheme-ViewHover {
        color:#93cee9;
      }
      .ColorScheme-ViewFocus{
        color:#3daee9;
      }
      .ColorScheme-ButtonText {
        color:#31363b;
      }
      .ColorScheme-ButtonBackground {
        color:#eff0f1;
      }
      .ColorScheme-ButtonHover {
        color:#93cee9;
      }
      .ColorScheme-ButtonFocus{
        color:#3daee9;
      }
      </style>
  </defs>
  <sodipodi:namedview
     id="base"
     pagecolor="#ffffff"
     bordercolor="#666666"
     borderopacity="1.0"
     inkscape:pageopacity="0.0"
     inkscape:pageshadow="2"
     inkscape:zoom="45.254832"
     inkscape:cx="12.045629"
     inkscape:cy="9.9561472"
     inkscape:document-units="px"
     inkscape:current-layer="layer1"
     showgrid="true"
     fit-margin-top="0"
     fit-margin-left="0"
     fit-margin-right="0"
     fit-margin-bottom="0"
     inkscape:window-width="1920"
     inkscape:window-height="1017"
     inkscape:window-x="0"
     inkscape:window-y="0"
     inkscape:window-maximized="1"
     inkscape:showpageshadow="false">
    <inkscape:grid
       type="xygrid"
       id="grid4132" />
    <sodipodi:guide
       position="2,20.000017"
       orientation="18,0"
       id="guide4138" />
    <sodipodi:guide
       position="2,2.0000174"
       orientation="0,18"
       id="guide4140" />
    <sodipodi:guide
       position="20,2.0000174"
       orientation="-18,0"
       id="guide4142" />
    <sodipodi:guide
       position="20,20.000017"
       orientation="0,-18"
       id="guide4144" />
    <sodipodi:guide
       position="3,19.000017"
       orientation="16,0"
       id="guide4146" />
    <sodipodi:guide
       position="3,3.0000174"
       orientation="0,16"
       id="guide4148" />
    <sodipodi:guide
       position="19,3.0000174"
       orientation="-16,0"
       id="guide4150" />
    <sodipodi:guide
       position="19,19.000017"
       orientation="0,-16"
       id="guide4152" />
  </sodipodi:namedview>
  <metadata
     id="metadata3874">
    <rdf:RDF>
      <cc:Work
         rdf:about="">
        <dc:format>image/svg+xml</dc:format>
        <dc:type
           rdf:resource="http://purl.org/dc/dcmitype/StillImage" />
        <dc:title></dc:title>
      </cc:Work>
    </rdf:RDF>
  </metadata>
  <g
     inkscape:label="Capa 1"
     inkscape:groupmode="layer"
     id="layer1"
     transform="translate(-326,-534.3622)">
    <path
       style="color:#f2f2f2;clip-rule:nonzero;display:inline;overflow:visible;visibility:visible;isolation:auto;mix-blend-mode:normal;color-interpolation:sRGB;color-interpolation-filters:linearRGB;solid-color:#000000;solid-opacity:1;fill:currentColor;fill-opacity:1;fill-rule:nonzero;stroke:none;stroke-width:1;stroke-linecap:butt;stroke-linejoin:miter;stroke-miterlimit:4;stroke-dasharray:none;stroke-dashoffset:0;stroke-opacity:1;color-rendering:auto;image-rendering:auto;shape-rendering:auto;text-rendering:auto;enable-background:accumulate"
       d="m 11,3 c -4.4182746,0 -7.9999953,3.5817206 -8,8 4.7e-6,4.418279 3.5817254,8 8,8 4.418275,0 7.999995,-3.581721 8,-8 -5e-6,-4.4182794 -3.581725,-8 -8,-8 z m 0,1 c 1.660191,4.288e-4 3.266188,0.5909096 4.53125,1.6660156 l 0,0.00195 c 0.01246,0.019396 0.01803,0.030627 0.03125,0.050781 L 11,10.28125 6.4375,5.71875 c 0.00817,-0.013106 0.01146,-0.020225 0.019531,-0.033203 0.067605,-0.086608 -0.4076166,0.011628 0,0 C 7.7223995,4.6007744 9.333303,4.0030918 11,4 Z m 4.867188,1.9804688 C 16.017175,6.1263151 16.160548,6.2788119 16.296875,6.4375 16.160548,6.2788119 16.017175,6.1263151 15.867188,5.9804688 Z M 5.71875,6.4375 10.28125,11 5.71875,15.5625 C 5.6171467,15.440805 5.5512717,15.375451 5.4570312,15.265625 c 0.1420583,0.185177 0.2932889,0.363134 0.453125,0.533203 0.1532963,0.162559 0.3142879,0.317684 0.4824219,0.464844 C 6.2244441,16.116512 6.0634525,15.961387 5.9101562,15.798828 5.7503201,15.628759 5.5990895,15.450802 5.4570312,15.265625 4.514313,14.043295 4.0020659,12.543633 4,11 4.0008918,9.3404807 4.5913443,7.735253 5.6660156,6.4707031 5.6871048,6.4567728 5.6971198,6.4519431 5.71875,6.4375 Z m 10.5625,0 c 0.0092,0.0038 0.01426,0.00405 0.02344,0.00781 C 17.395609,7.7123541 17.996983,9.3280269 18,11 c -4.5e-4,1.666377 -0.595348,3.277936 -1.677734,4.544922 -0.01502,0.0077 -0.02512,0.009 -0.04102,0.01758 L 11.71875,11 Z M 11,11.71875 l 4.5625,4.5625 c -0.0048,0.01015 -0.007,0.01531 -0.01172,0.02539 0.162894,-0.139232 0.319309,-0.285871 0.46875,-0.439453 -0.149441,0.153582 -0.305856,0.300221 -0.46875,0.439453 C 14.284481,17.395982 12.67038,17.996594 11,18 9.3269314,17.998459 7.7097452,17.397731 6.4414062,16.306641 c -0.00173,-0.01032 -0.00215,-0.01499 -0.00391,-0.02539 z"
       transform="translate(326,534.3622)"
       id="rect4203"
       inkscape:connector-curvature="0"
       sodipodi:nodetypes="sssssccccccccccccccccccccccccccccccccccccccc" />
  </g>
</svg>

<svg xmlns="http://www.w3.org/2000/svg" viewBox="0 0 22 22"><path d="m11 3c-4.418 0-8 3.582-8 8 0 4.418 3.582 8 8 8 4.418 0 8-3.582 8-8 0-4.418-3.582-8-8-8m0 1c1.66 0 3.266.591 4.531 1.666v.002c.012.019.018.031.031.051l-4.563 4.563-4.563-4.563c.008-.013.011-.02.02-.033 1.265-1.085 2.876-1.682 4.543-1.686m4.867 1.98c.15.146.293.298.43.457-.136-.159-.28-.311-.43-.457m-10.148.457l4.563 4.563-4.563 4.563c-.102-.122-.167-.187-.262-.297.142.185.293.363.453.533.153.163.314.318.482.465-.168-.147-.329-.302-.482-.465-.16-.17-.311-.348-.453-.533-.943-1.222-1.455-2.722-1.457-4.266.0001-1.66.591-3.265 1.666-4.529.021-.014.031-.019.053-.033m10.563 0c.009.004.014.004.023.008 1.091 1.267 1.692 2.883 1.695 4.555 0 1.666-.595 3.278-1.678 4.545-.015.008-.025.009-.041.018l-4.562-4.563m-.719.719l4.563 4.563c-.005.001-.007.015-.012.025.163-.139.319-.286.469-.439-.149.154-.306.3-.469.439-1.266 1.089-2.88 1.69-4.551 1.693-1.673-.002-3.29-.602-4.559-1.693-.002-.001-.002-.015-.004-.025z" mix-blend-mode="normal" solid-color="#000000" color-interpolation-filters="linearRGB" color="#f2f2f2" image-rendering="auto" color-rendering="auto" isolation="auto" color-interpolation="sRGB" solid-opacity="1" shape-rendering="auto"/></svg>
